src/16/mimetypes/radio.svg

<svg width="16" xmlns="http://www.w3.org/2000/svg" height="16" viewBox="0 0 16 16">
 <path fill="#22a7f0" color="#000000" stroke-width="1.4" d="m3.74 2l-.334.943 6.854 2.057h-9.26v9h14v-9h-.99l-1.865-.479zm-1.74 4h12v7h-12zm1 1v1h4v-1zm7.5 0a2.499805 2.499805 0 0 0 -2.5 2.5 2.499805 2.499805 0 0 0 2.5 2.5 2.499805 2.499805 0 0 0 2.5 -2.5 2.499805 2.499805 0 0 0 -2.5 -2.5m.048828 1.019531a1.480529 1.480529 0 0 1 1.480469 1.480469 1.480529 1.480529 0 0 1 -1.480469 1.480469 1.480529 1.480529 0 0 1 -1.478516 -1.480469 1.480529 1.480529 0 0 1 1.478516 -1.480469m-7.549.98v1h4v-1zm0 2v1h4v-1z"/>
</svg>

<svg width="16" xmlns="http://www.w3.org/2000/svg" height="16"><path fill="#22a7f0" color="#000" stroke-width="1.4" d="M3.74 2l-.334.943L10.26 5H1v9h14V5h-.99l-1.865-.479zM2 6h12v7H2zm1 1v1h4V7zm7.5 0A2.5 2.5 0 0 0 8 9.5a2.5 2.5 0 0 0 2.5 2.5A2.5 2.5 0 0 0 13 9.5 2.5 2.5 0 0 0 10.5 7m.049 1.02a1.48 1.48 0 0 1 1.48 1.48 1.48 1.48 0 0 1-1.48 1.48A1.48 1.48 0 0 1 9.07 9.5a1.48 1.48 0 0 1 1.479-1.48M2.999 9v1h4V9zm0 2v1h4v-1z"/></svg>
